X:1
T:The Mug of Brown Ale
C:Traditional
M:6/8
L:1/8
Q:3/8=120
K:G
G|EGA Bcd|edc B2A|BAG dGG|cBA G2F|
EGA Bcd|efg a2g|edc Bcd|ecA A2G|]
